icon/cg/path-intersect.svg

<svg width="24" height="24" fill="none" xmlns="http://www.w3.org/2000/svg"><path fill-rule="evenodd" clip-rule="evenodd" d="M15 5H5v10h4v4h10V9h-4V5Zm-2 2H7v6h2V9h4V7Zm4 10h-6v-2h4v-4h2v6Z" fill="currentColor"/></svg>

<svg viewBox="0 0 24 24" fill="none" xmlns="http://www.w3.org/2000/svg" height="1em" width="1em">
  <path fill-rule="evenodd" clip-rule="evenodd" d="M15 5H5V15H9V19H19V9H15V5ZM13 7H7V13H9V9H13V7ZM17 17H11V15H15V11H17V17Z" fill="currentColor"/>
</svg>
